X:1
T:[ID 4-49r]
T:[ID 4-49r]
T:Bezeichnung standardisiert: [mit Trio]; No 1. ex D. dur. [mit Trio]
T:Urheber unbekannt Datum in der hier transkribierten schriftlichen Quelle: 1767
C:Urheber unbekannt
C:Datum in der hier transkribierten schriftlichen Quelle: 1767
L:1/8
M:2/4
K:D
V:1 treble 
V:1
 dDFA | dfaf | gedc | d/c/d/e/dA | dDFA | dfaf | gedc | d2 z2 :: ee cc | gg e2 | ff dd | aa f2 | %12
 dDFA | dfaf | gedc | d2 z2 :|[K:G][M:2/4]"^Trio" !fermata!BGBd | BGBd | cAGF | G/A/B/c/ d/e/f/g/ | %20
 BGBd | BGBd | cAGF | G2 z2 :: AA BB | AA BB | AA BB | A2 z2 | BGBd | BGBd | cAGF | G2 z2!D.C.! :| %32

